public/favicon-mask.svg

<svg viewBox="0 0 32 32" fill="none" xmlns="http://www.w3.org/2000/svg">
<path d="M8.592 27V5.81604H18.128C20.3893 5.81604 22.1707 6.43471 23.472 7.67204C24.7733 8.88804 25.424 10.5414 25.424 12.632C25.424 14.7227 24.7733 16.3867 23.472 17.624C22.1707 18.84 20.3893 19.448 18.128 19.448H10.992V27H8.592ZM10.992 17.208H17.968C19.632 17.208 20.8907 16.8027 21.744 15.992C22.5973 15.1814 23.024 14.0614 23.024 12.632C23.024 11.224 22.5973 10.1147 21.744 9.30404C20.8907 8.49337 19.632 8.08804 17.968 8.08804H10.992V17.208Z" fill="black"/>
</svg>

<svg viewBox="0 0 32 32" fill="none" xmlns="http://www.w3.org/2000/svg"><path d="M8.592 27V5.816h9.536c2.261 0 4.043.619 5.344 1.856 1.301 1.216 1.952 2.87 1.952 4.96s-.65 3.755-1.952 4.992c-1.301 1.216-3.083 1.824-5.344 1.824h-7.136V27h-2.4zm2.4-9.792h6.976c1.664 0 2.923-.405 3.776-1.216.853-.81 1.28-1.93 1.28-3.36 0-1.408-.427-2.517-1.28-3.328-.853-.81-2.112-1.216-3.776-1.216h-6.976v9.12z" fill="#000"/></svg>
